assets/svg/icon_gallery_open.svg

<svg width="24" height="24" viewBox="0 0 24 24" fill="none" xmlns="http://www.w3.org/2000/svg">
<path d="M4.1049 11.9236C3.85552 12.1418 3.83024 12.5208 4.04845 12.7702C4.26666 13.0196 4.64572 13.0449 4.8951 12.8266L4.1049 11.9236ZM5.81369 11.2256L6.20879 11.6772H6.20879L5.81369 11.2256ZM8.16936 11.3041L7.7451 11.7283L8.16936 11.3041ZM11.3867 14.5214L11.8109 14.0971V14.0971L11.3867 14.5214ZM13.3098 14.6879L13.6548 15.1788L13.6548 15.1788L13.3098 14.6879ZM13.5335 14.5308L13.1885 14.0399L13.1885 14.0399L13.5335 14.5308ZM16.3324 14.6992L15.931 15.1452L16.3324 14.6992ZM18.3486 17.3211C18.5949 17.5428 18.9743 17.5228 19.196 17.2765C19.4177 17.0302 19.3977 16.6508 19.1514 16.4291L18.3486 17.3211ZM12 18.9C10.2153 18.9 8.93708 18.8987 7.96518 18.7681C7.01054 18.6397 6.44173 18.3965 6.02261 17.9774L5.17409 18.8259C5.85332 19.5052 6.71757 19.8111 7.80528 19.9574C8.87573 20.1013 10.2492 20.1 12 20.1V18.9ZM3.9 12C3.9 13.7508 3.89873 15.1243 4.04264 16.1947C4.18888 17.2824 4.49485 18.1467 5.17409 18.8259L6.02261 17.9774C5.6035 17.5583 5.36029 16.9895 5.23194 16.0348C5.10127 15.0629 5.1 13.7847 5.1 12H3.9ZM18.9 12C18.9 13.7847 18.8987 15.0629 18.7681 16.0348C18.6397 16.9895 18.3965 17.5583 17.9774 17.9774L18.8259 18.8259C19.5052 18.1467 19.8111 17.2824 19.9574 16.1947C20.1013 15.1243 20.1 13.7508 20.1 12H18.9ZM12 20.1C13.7508 20.1 15.1243 20.1013 16.1947 19.9574C17.2824 19.8111 18.1467 19.5052 18.8259 18.8259L17.9774 17.9774C17.5583 18.3965 16.9895 18.6397 16.0348 18.7681C15.0629 18.8987 13.7847 18.9 12 18.9V20.1ZM12 5.1C13.7847 5.1 15.0629 5.10127 16.0348 5.23194C16.9895 5.36029 17.5583 5.6035 17.9774 6.02261L18.8259 5.17409C18.1467 4.49485 17.2824 4.18888 16.1947 4.04264C15.1243 3.89873 13.7508 3.9 12 3.9V5.1ZM20.1 12C20.1 10.2492 20.1013 8.87573 19.9574 7.80528C19.8111 6.71757 19.5052 5.85332 18.8259 5.17409L17.9774 6.02261C18.3965 6.44173 18.6397 7.01054 18.7681 7.96518C18.8987 8.93708 18.9 10.2153 18.9 12H20.1ZM12 3.9C10.2492 3.9 8.87573 3.89873 7.80528 4.04264C6.71757 4.18888 5.85332 4.49485 5.17409 5.17409L6.02261 6.02261C6.44173 5.6035 7.01054 5.36029 7.96518 5.23194C8.93708 5.10127 10.2153 5.1 12 5.1V3.9ZM5.1 12C5.1 10.2153 5.10127 8.93708 5.23194 7.96518C5.36029 7.01054 5.6035 6.44173 6.02261 6.02261L5.17409 5.17409C4.49485 5.85332 4.18888 6.71757 4.04264 7.80528C3.89873 8.87573 3.9 10.2492 3.9 12H5.1ZM15.9 9C15.9 9.49706 15.4971 9.9 15 9.9V11.1C16.1598 11.1 17.1 10.1598 17.1 9H15.9ZM15 9.9C14.5029 9.9 14.1 9.49706 14.1 9H12.9C12.9 10.1598 13.8402 11.1 15 11.1V9.9ZM14.1 9C14.1 8.50294 14.5029 8.1 15 8.1V6.9C13.8402 6.9 12.9 7.8402 12.9 9H14.1ZM15 8.1C15.4971 8.1 15.9 8.50294 15.9 9H17.1C17.1 7.8402 16.1598 6.9 15 6.9V8.1ZM4.8951 12.8266L6.20879 11.6772L5.41859 10.7741L4.1049 11.9236L4.8951 12.8266ZM7.7451 11.7283L10.9624 14.9456L11.8109 14.0971L8.59363 10.8798L7.7451 11.7283ZM13.6548 15.1788L13.8784 15.0217L13.1885 14.0399L12.9648 14.1971L13.6548 15.1788ZM15.931 15.1452L18.3486 17.3211L19.1514 16.4291L16.7337 14.2532L15.931 15.1452ZM13.8784 15.0217C14.5078 14.5794 15.3592 14.6306 15.931 15.1452L16.7337 14.2532C15.7462 13.3644 14.2755 13.2759 13.1885 14.0399L13.8784 15.0217ZM10.9624 14.9456C11.684 15.6672 12.8199 15.7656 13.6548 15.1788L12.9648 14.1971C12.607 14.4485 12.1202 14.4064 11.8109 14.0971L10.9624 14.9456ZM6.20879 11.6772C6.65452 11.2872 7.3263 11.3095 7.7451 11.7283L8.59363 10.8798C7.72811 10.0143 6.33976 9.96806 5.41859 10.7741L6.20879 11.6772Z" fill="#0166FF"/>
</svg>

<svg xmlns="http://www.w3.org/2000/svg" width="24" height="24" fill="none"><path fill="#0166FF" d="M4.105 11.924a.6.6 0 1 0 .79.903zm1.709-.698.395.451zm2.355.078-.424.424zm3.218 3.217.424-.424zm1.923.167.345.49zm.223-.157-.344-.491zm2.8.168-.402.446zm2.016 2.622a.6.6 0 0 0 .802-.892zM12 18.9c-1.785 0-3.063-.001-4.035-.132-.954-.128-1.523-.372-1.942-.79l-.849.848c.68.68 1.544.985 2.631 1.131 1.07.144 2.444.143 4.195.143zM3.9 12c0 1.75-.001 3.124.143 4.195.146 1.087.452 1.952 1.131 2.63l.849-.848c-.42-.419-.663-.988-.791-1.942-.13-.972-.132-2.25-.132-4.035zm15 0c0 1.785-.001 3.063-.132 4.035-.128.954-.372 1.523-.79 1.942l.848.849c.68-.68.985-1.544 1.131-2.631.144-1.07.143-2.444.143-4.195zM12 20.1c1.75 0 3.124.001 4.195-.143 1.087-.146 1.952-.452 2.63-1.131l-.848-.849c-.419.42-.988.663-1.942.791-.972.13-2.25.132-4.035.132zm0-15c1.785 0 3.063.001 4.035.132.954.128 1.523.372 1.942.79l.849-.848c-.68-.68-1.544-.985-2.631-1.131C15.125 3.899 13.75 3.9 12 3.9zm8.1 6.9c0-1.75.001-3.124-.143-4.195-.146-1.087-.452-1.952-1.131-2.63l-.849.848c.42.419.663.988.791 1.942.13.972.132 2.25.132 4.035zM12 3.9c-1.75 0-3.124-.001-4.195.143-1.087.146-1.952.452-2.63 1.131l.848.849c.419-.42.988-.663 1.942-.791.972-.13 2.25-.132 4.035-.132zM5.1 12c0-1.785.001-3.063.132-4.035.128-.954.372-1.523.79-1.942l-.848-.849c-.68.68-.985 1.544-1.131 2.631C3.899 8.875 3.9 10.25 3.9 12zm10.8-3a.9.9 0 0 1-.9.9v1.2A2.1 2.1 0 0 0 17.1 9zm-.9.9a.9.9 0 0 1-.9-.9h-1.2c0 1.16.94 2.1 2.1 2.1zm-.9-.9a.9.9 0 0 1 .9-.9V6.9A2.1 2.1 0 0 0 12.9 9zm.9-.9a.9.9 0 0 1 .9.9h1.2A2.1 2.1 0 0 0 15 6.9zM4.895 12.827l1.314-1.15-.79-.903-1.314 1.15zm2.85-1.099 3.217 3.218.849-.849-3.217-3.217zm5.91 3.45.223-.156-.69-.982-.223.157zm2.276-.033 2.418 2.176.802-.892-2.417-2.176zm-2.053-.123a1.65 1.65 0 0 1 2.053.123l.803-.892a2.85 2.85 0 0 0-3.546-.213zm-2.916-.076a2.1 2.1 0 0 0 2.693.233l-.69-.982a.9.9 0 0 1-1.154-.1zM6.21 11.677a1.125 1.125 0 0 1 1.536.051l.849-.848a2.325 2.325 0 0 0-3.175-.106z"/></svg>
